packages/icons/raw/imported/MailSend.svg

<svg width="32" height="32" viewBox="0 0 32 32" fill="none" xmlns="http://www.w3.org/2000/svg">
<path d="M17.5082 23.8897L17.0758 24.1407L17.5082 23.8897ZM13.7119 18.0794L13.5035 18.5339L13.7119 18.0794ZM14.608 18.8934L14.1756 19.1444L14.608 18.8934ZM22.3984 7.24843L22.2347 6.77601L22.3984 7.24843ZM24.9806 9.67299L24.4988 9.53927L24.9806 9.67299ZM22.2347 6.77601L8.54261 11.5221L8.87013 12.467L22.5622 7.72085L22.2347 6.77601ZM8.31935 16.1567L13.5035 18.5339L13.9203 17.6249L8.73617 15.2477L8.31935 16.1567ZM14.1756 19.1444L17.0758 24.1407L17.9406 23.6387L15.0404 18.6424L14.1756 19.1444ZM21.6469 23.5543L25.4624 9.8067L24.4988 9.53927L20.6833 23.2868L21.6469 23.5543ZM17.0758 24.1407C18.1871 26.0553 21.0548 25.6874 21.6469 23.5543L20.6833 23.2868C20.3281 24.5667 18.6074 24.7874 17.9406 23.6387L17.0758 24.1407ZM13.5035 18.5339C13.7852 18.6631 14.02 18.8764 14.1756 19.1444L15.0404 18.6424C14.7811 18.1957 14.3898 17.8402 13.9203 17.6249L13.5035 18.5339ZM8.54261 11.5221C6.41329 12.2602 6.27084 15.2173 8.31935 16.1567L8.73617 15.2477C7.50706 14.6841 7.59254 12.9098 8.87013 12.467L8.54261 11.5221ZM22.5622 7.72085C23.7047 7.32482 24.8222 8.3741 24.4988 9.53927L25.4624 9.8067C26.0014 7.86476 24.1388 6.11595 22.2347 6.77601L22.5622 7.72085Z" fill="black"/>
</svg>

<svg width="32" height="32" fill="none" xmlns="http://www.w3.org/2000/svg"><path d="m17.508 23.89-.432.25.432-.25Zm-3.796-5.81-.208.454.208-.455Zm.896.813-.432.251.432-.25Zm7.79-11.645-.163-.472.163.472Zm2.583 2.425-.482-.134.482.134Zm-2.746-2.897L8.543 11.522l.327.945 13.692-4.746-.327-.945Zm-13.916 9.38 5.184 2.378.417-.91-5.184-2.376-.417.909Zm5.857 2.988 2.9 4.997.865-.502-2.9-4.997-.865.502Zm7.47 4.41 3.816-13.747-.963-.268-3.816 13.748.964.267Zm-4.57.587c1.111 1.914 3.979 1.546 4.57-.587l-.963-.267c-.355 1.28-2.076 1.5-2.742.352l-.865.502Zm-3.572-5.607a1.5 1.5 0 0 1 .672.61l.864-.502a2.5 2.5 0 0 0-1.12-1.017l-.416.909Zm-4.961-7.012c-2.13.738-2.272 3.695-.224 4.635l.417-.91c-1.229-.563-1.143-2.337.134-2.78l-.327-.945Zm14.02-3.801c1.142-.396 2.26.653 1.936 1.818l.963.268c.54-1.942-1.323-3.691-3.227-3.031l.327.945Z" fill="#000"/></svg>
